icons/currency-euro.svg

<svg xmlns="http://www.w3.org/2000/svg" width="24" height="24" viewBox="0 0 24 24">
  <path d="M12,1 C18.0751322,1 23,5.92486775 23,12 C23,18.0751322 18.0751322,23 12,23 C5.92486775,23 1,18.0751322 1,12 C1,5.92486775 5.92486775,1 12,1 Z M15.3944292,8.05278551 C14.0259021,5.31573801 9.974097,5.31573801 8.60557281,8.0527864 C8.38182172,8.50028858 8.2019575,8.98817984 8.06598015,9.50061623 L8.06598015,9.50061623 L8,9.5 L7.88337887,9.50672773 C7.38604019,9.56449284 7,9.98716416 7,10.5 C7,10.9711953 7.32589502,11.3662738 7.76352521,11.4712336 C7.7454916,11.823049 7.7454916,12.176951 7.76458068,12.527869 C7.32589502,12.6337262 7,13.0288047 7,13.5 C7,14.0522847 7.44771525,14.5 8,14.5 L8,14.5 L8.06624771,14.5003918 C8.20219341,15.01246 8.38196844,15.5000049 8.60557281,15.9472136 C9.974097,18.684262 14.0259021,18.684262 15.3944292,15.9472145 C15.641419,15.4532362 15.4411952,14.852563 14.947217,14.6055733 C14.4532387,14.3585835 13.8525655,14.5588073 13.6055758,15.0527855 L13.6055758,15.0527855 L13.5301268,15.1879162 C12.8315934,16.3140056 11.002515,16.268962 10.3944272,15.0527864 C10.30707,14.878072 10.2285943,14.6935364 10.159,14.5011766 L10.159,14.5011766 L12,14.5 L12.1166211,14.4932723 C12.6139598,14.4355072 13,14.0128358 13,13.5 C13,12.9477153 12.5522847,12.5 12,12.5 L12,12.5 L9.76495756,12.5004422 C9.74503419,12.1682682 9.74501417,11.8327411 9.76489749,11.5005604 L9.76489749,11.5005604 L12,11.5 L12.1166211,11.4932723 C12.6139598,11.4355072 13,11.0128358 13,10.5 C13,9.94771525 12.5522847,9.5 12,9.5 L12,9.5 L10.1586432,9.49980992 C10.228326,9.30709448 10.3069207,9.12222661 10.3944272,8.9472136 C11.025903,7.68426199 12.9740979,7.68426199 13.6055758,8.94721449 L13.6055758,8.94721449 L13.6637479,9.0485148 C13.9378316,9.46751443 14.4885229,9.62377436 14.947217,9.39442674 C15.4411952,9.147437 15.641419,8.54676376 15.3944292,8.05278551 Z"/>
</svg>

<svg xmlns="http://www.w3.org/2000/svg" viewBox="0 0 24 24">
  <path d="M12 1a11 11 0 1 1 0 22 11 11 0 0 1 0-22zm3.4 7.05a3.83 3.83 0 0 0-6.8 0c-.22.45-.4.94-.53 1.45h-.19a1 1 0 0 0-.12 1.97v1.06A1 1 0 0 0 8 14.5h.07c.13.51.31 1 .54 1.45a3.83 3.83 0 0 0 6.78 0 1 1 0 1 0-1.78-.9l-.08.14c-.7 1.12-2.53 1.08-3.14-.14a5.16 5.16 0 0 1-.23-.55h1.96a1 1 0 0 0-.12-2H9.76a8.38 8.38 0 0 1 0-1h2.36a1 1 0 0 0-.12-2h-1.84c.07-.2.15-.38.23-.55.64-1.27 2.58-1.27 3.22 0l.05.1a1 1 0 0 0 1.73-1z"/>
</svg>
